svgs/duotone/paperclip.svg

<svg xmlns="http://www.w3.org/2000/svg" viewBox="0 0 448 512"><!--! Font Awesome Pro 6.5.1 by @fontawesome - https://fontawesome.com License - https://fontawesome.com/license (Commercial License) Copyright 2023 Fonticons, Inc. --><defs><style>.fa-secondary{opacity:.4}</style></defs><path class="fa-secondary" d="M364.2 83.8c-24.4-24.4-64-24.4-88.4 0l-184 184c-42.1 42.1-42.1 110.3 0 152.4s110.3 42.1 152.4 0l152-152c10.9-10.9 28.7-10.9 39.6 0s10.9 28.7 0 39.6l-152 152c-64 64-167.6 64-231.6 0s-64-167.6 0-231.6l184-184c46.3-46.3 121.3-46.3 167.6 0s46.3 121.3 0 167.6l-176 176c-28.6 28.6-75 28.6-103.6 0s-28.6-75 0-103.6l144-144c10.9-10.9 28.7-10.9 39.6 0s10.9 28.7 0 39.6l-144 144c-6.7 6.7-6.7 17.7 0 24.4s17.7 6.7 24.4 0l176-176c24.4-24.4 24.4-64 0-88.4z"/><path class="fa-primary" d=""/></svg>

<svg xmlns="http://www.w3.org/2000/svg" viewBox="0 0 448 512"><!--! Font Awesome Pro 6.1.1 by @fontawesome - https://fontawesome.com License - https://fontawesome.com/license (Commercial License) Copyright 2022 Fonticons, Inc. --><defs><style>.fa-secondary{opacity:.4}</style></defs><path class="fa-secondary" d="M364.2 83.8C339.8 59.39 300.2 59.39 275.8 83.8L91.8 267.8C49.71 309.9 49.71 378.1 91.8 420.2C133.9 462.3 202.1 462.3 244.2 420.2L396.2 268.2C407.1 257.3 424.9 257.3 435.8 268.2C446.7 279.1 446.7 296.9 435.8 307.8L283.8 459.8C219.8 523.8 116.2 523.8 52.2 459.8C-11.75 395.8-11.75 292.2 52.2 228.2L236.2 44.2C282.5-2.08 357.5-2.08 403.8 44.2C450.1 90.48 450.1 165.5 403.8 211.8L227.8 387.8C199.2 416.4 152.8 416.4 124.2 387.8C95.59 359.2 95.59 312.8 124.2 284.2L268.2 140.2C279.1 129.3 296.9 129.3 307.8 140.2C318.7 151.1 318.7 168.9 307.8 179.8L163.8 323.8C157.1 330.5 157.1 341.5 163.8 348.2C170.5 354.9 181.5 354.9 188.2 348.2L364.2 172.2C388.6 147.8 388.6 108.2 364.2 83.8V83.8z"/></svg>
